src/assets/images/logo.svg

<svg width="101" height="46" viewBox="0 0 101 46" fill="none" xmlns="http://www.w3.org/2000/svg">
<path d="M9.93226 19.4356C8.13469 19.4328 6.37644 19.9569 4.87866 20.9419V19.8978H0V46H4.88061V36.0838C6.07195 36.8642 7.43092 37.3576 8.84896 37.5247C10.267 37.6918 11.7048 37.528 13.0476 37.0464C14.3904 36.5647 15.6009 35.7786 16.5825 34.7507C17.5641 33.7228 18.2896 32.4817 18.701 31.1265C19.1123 29.7713 19.1982 28.3395 18.9518 26.9456C18.7053 25.5516 18.1334 24.234 17.2816 23.0982C16.4298 21.9623 15.3218 21.0395 14.0461 20.4036C12.7704 19.7676 11.3622 19.4361 9.9342 19.4356H9.93226ZM9.93226 33.0019C9.03608 33.0019 8.16003 32.7385 7.41491 32.2451C6.66979 31.7516 6.08908 31.0503 5.74621 30.2297C5.40335 29.4091 5.31374 28.5063 5.48872 27.6352C5.66369 26.7642 6.0954 25.9642 6.72923 25.3363C7.36306 24.7084 8.17054 24.2809 9.04955 24.1079C9.92855 23.9349 10.8396 24.0241 11.6674 24.3642C12.4953 24.7043 13.2028 25.2801 13.7004 26.0188C14.198 26.7574 14.4634 27.6257 14.463 28.5138C14.463 29.1034 14.3458 29.6871 14.1181 30.2318C13.8904 30.7764 13.5566 31.2713 13.1359 31.688C12.7151 32.1048 12.2156 32.4354 11.666 32.6608C11.1163 32.8862 10.5272 33.0022 9.93226 33.0019ZM29.0426 19.9036H30.4285V24.7423H29.0368C28.1305 24.7423 27.2614 25.099 26.6206 25.7341C25.9798 26.3692 25.6198 27.2305 25.6198 28.1286V37.3166H20.7392V28.1286C20.7389 27.0478 20.9535 25.9775 21.3707 24.979C21.7879 23.9804 22.3994 23.073 23.1705 22.3087C23.9416 21.5444 24.857 20.9381 25.8646 20.5244C26.8721 20.1108 27.952 19.8978 29.0426 19.8978V19.9036ZM78.7331 19.5184C77.2024 19.518 75.6962 19.8994 74.3533 20.6273C73.0104 21.3553 71.8739 22.4065 71.0486 23.684C70.2233 24.9616 69.7356 26.4244 69.6306 27.9377C69.5255 29.4511 69.8064 30.9663 70.4475 32.3438C71.0885 33.7213 72.069 34.9168 73.2987 35.8202C74.5284 36.7235 75.9676 37.3057 77.484 37.513C79.0003 37.7204 80.5449 37.5462 81.9755 37.0066C83.406 36.467 84.6766 35.5794 85.6701 34.4254L82.1151 31.8519C81.5603 32.4123 80.8727 32.8259 80.1151 33.055C79.3574 33.2842 78.5539 33.3215 77.778 33.1637C77.0021 33.0058 76.2784 32.6578 75.6731 32.1514C75.0679 31.645 74.6003 30.9964 74.3131 30.2647H87.6896C87.9444 28.9569 87.9042 27.6094 87.5719 26.3188C87.2395 25.0282 86.6234 23.8263 85.7674 22.7993C84.9115 21.7723 83.837 20.9456 82.6209 20.3784C81.4048 19.8112 80.0771 19.5175 78.7331 19.5184ZM74.3151 26.838C74.6629 25.9575 75.2706 25.2014 76.0587 24.6684C76.8469 24.1354 77.7789 23.8503 78.7331 23.8503C79.6872 23.8503 80.6192 24.1354 81.4074 24.6684C82.1955 25.2014 82.8032 25.9575 83.1511 26.838H74.3151ZM68.0117 26.838C68.0117 26.9228 68.0117 37.3186 68.0117 37.3186H63.135V27.0114C63.1457 26.5664 63.0666 26.1237 62.9022 25.7095C62.7379 25.2953 62.4915 24.9178 62.1778 24.5993C61.864 24.2808 61.4891 24.0277 61.0752 23.8549C60.6613 23.6821 60.2167 23.593 59.7675 23.593C59.3184 23.593 58.8737 23.6821 58.4598 23.8549C58.0459 24.0277 57.671 24.2808 57.3572 24.5993C57.0435 24.9178 56.7972 25.2953 56.6328 25.7095C56.4684 26.1237 56.3893 26.5664 56.4001 27.0114V37.3166H51.5195V27.0114C51.5302 26.5664 51.4511 26.1237 51.2867 25.7095C51.1224 25.2953 50.876 24.9178 50.5623 24.5993C50.2485 24.2808 49.8736 24.0277 49.4597 23.8549C49.0458 23.6821 48.6012 23.593 48.152 23.593C47.7029 23.593 47.2582 23.6821 46.8443 23.8549C46.4304 24.0277 46.0555 24.2808 45.7418 24.5993C45.428 24.9178 45.1817 25.2953 45.0173 25.7095C44.8529 26.1237 44.7738 26.5664 44.7846 27.0114V37.3166H39.904V19.9036H44.7846V22.0032C45.4607 21.2255 46.298 20.6015 47.2396 20.1737C48.1811 19.7459 49.2047 19.5243 50.2405 19.5242C52.6643 19.5242 54.3378 20.6356 55.5099 21.7894C56.3643 20.8822 57.4418 20.2104 58.6369 19.8399C59.8321 19.4694 61.1038 19.4128 62.3276 19.6757C63.5514 19.9386 64.6854 20.512 65.6184 21.3397C66.5514 22.1674 67.2515 23.2211 67.6501 24.3975C67.8755 25.1917 67.9971 26.0112 68.0117 26.8361V26.838ZM32.0709 19.9133H36.9534V24.7596H32.0709V19.9133ZM32.0709 37.3166H36.9515V25.7709H32.0709V37.3166Z" fill="white"/>
<path d="M97.5091 23.3748V19.9153H94.0182V23.3748H90.5273V26.8342H94.0182V30.2937H97.5091V26.8342H101V23.3748H97.5091Z" fill="white"/>
<path d="M85.3651 8.97998C85.1644 9.09874 84.984 9.24827 84.8306 9.42301C84.984 9.24827 85.1644 9.09874 85.3651 8.97998Z" fill="#E10600"/>
<path d="M87.7109 8.80664C87.7129 8.82017 87.7129 8.8339 87.7109 8.84743C87.7129 8.8339 87.7129 8.82017 87.7109 8.80664Z" fill="#E10600"/>
<path d="M87.678 8.73145C87.6959 8.75291 87.7073 8.77895 87.711 8.80656C87.7073 8.77895 87.6959 8.75291 87.678 8.73145Z" fill="#E10600"/>
<path d="M87.6741 8.92614L83.9558 13.212L87.6741 8.92614C87.6944 8.90427 87.7073 8.87666 87.711 8.84717C87.7073 8.87666 87.6944 8.90427 87.6741 8.92614Z" fill="white"/>
<path d="M87.7111 8.84725C87.713 8.83383 87.713 8.82021 87.7111 8.80679C87.7074 8.77917 87.6959 8.75314 87.678 8.73167C87.6642 8.7147 87.6468 8.70103 87.6269 8.69169C87.6071 8.68235 87.5853 8.67758 87.5633 8.67774H86.4729C86.0829 8.67772 85.7001 8.78221 85.365 8.98016C85.1644 9.09892 84.984 9.24845 84.8305 9.42318L83.1104 11.4091V13.6666C83.4373 13.6247 83.7377 13.4666 83.9559 13.2217L87.6741 8.93585C87.6964 8.91143 87.7095 8.88012 87.7111 8.84725ZM87.5944 8.8588L83.8742 13.1427C83.7 13.3365 83.4689 13.4712 83.2134 13.528V11.438L84.9083 9.4829C85.1024 9.26022 85.3426 9.08151 85.6126 8.95888C85.8826 8.83624 86.176 8.77255 86.4729 8.77212H87.5633C87.5724 8.77247 87.5812 8.77544 87.5886 8.78066C87.596 8.78588 87.6017 8.79313 87.605 8.80151C87.6083 8.8099 87.6091 8.81906 87.6072 8.82787C87.6053 8.83667 87.6009 8.84475 87.5944 8.8511V8.8588Z" fill="white"/>
<path d="M87.6042 8.80871C87.6016 8.80008 87.5962 8.79255 87.5888 8.78732C87.5814 8.78209 87.5724 8.77945 87.5633 8.77982H86.4729C86.176 8.78025 85.8826 8.84394 85.6126 8.96657C85.3426 9.08921 85.1024 9.26792 84.9083 9.49059L83.2134 11.438L83.1104 11.5555V13.5568L83.2134 13.5337C83.4689 13.477 83.7 13.3422 83.8742 13.1485L87.5944 8.8588C87.6016 8.85282 87.6065 8.84458 87.6083 8.83546C87.61 8.82634 87.6086 8.8169 87.6042 8.80871Z" fill="#E10600"/>
<path d="M44.3589 15.558L41.0994 5.93848H43.1791L45.5504 13.3351L47.9081 5.94233H50.0034L46.7302 15.5619L44.3589 15.558Z" fill="white"/>
<path d="M54.4895 5.93866C54.9256 5.92981 55.3591 6.00795 55.7641 6.16844C56.1691 6.32893 56.5375 6.56849 56.8472 6.87288C57.461 7.48182 57.8057 8.30729 57.8057 9.16796C57.8057 10.0286 57.461 10.8541 56.8472 11.4631C56.5375 11.7674 56.1691 12.007 55.7641 12.1675C55.3591 12.328 54.9256 12.4061 54.4895 12.3973H52.7849V15.5582H50.8704V5.93866H54.4895ZM54.4895 10.6251C54.8702 10.6114 55.2307 10.4519 55.4952 10.1801C55.7596 9.90835 55.9074 9.54551 55.9074 9.16796C55.9074 8.79041 55.7596 8.42758 55.4952 8.15581C55.2307 7.88403 54.8702 7.7245 54.4895 7.71078H52.7849V10.6251H54.4895Z" fill="white"/>
<path d="M65.8445 12.7688C65.8551 13.146 65.7823 13.521 65.6312 13.8674C65.4801 14.2137 65.2544 14.5232 64.9698 14.774C64.381 15.2985 63.6115 15.5792 62.8201 15.5579H58.6995V5.93841H62.5285C63.3008 5.91952 64.0509 6.19535 64.6238 6.7089C64.9011 6.95014 65.1217 7.24864 65.2701 7.58341C65.4186 7.91818 65.4912 8.2811 65.4829 8.64667C65.4949 9.01661 65.4182 9.38408 65.259 9.71892C65.0999 10.0538 64.8629 10.3464 64.5675 10.5729C64.9668 10.7833 65.2983 11.1008 65.5241 11.4891C65.7499 11.8774 65.8609 12.3209 65.8445 12.7688ZM60.6159 7.71053V9.82936H62.5285C62.8121 9.82936 63.084 9.71775 63.2844 9.51907C63.4849 9.32039 63.5976 9.05092 63.5976 8.76995C63.5976 8.48897 63.4849 8.21951 63.2844 8.02083C63.084 7.82215 62.8121 7.71053 62.5285 7.71053H60.6159ZM62.8201 13.7858C63.1237 13.7858 63.4149 13.6663 63.6296 13.4535C63.8443 13.2408 63.9649 12.9522 63.9649 12.6513C63.9649 12.3504 63.8443 12.0618 63.6296 11.849C63.4149 11.6363 63.1237 11.5167 62.8201 11.5167H60.6159V13.7858H62.8201Z" fill="white"/>
<path d="M79.9888 9.24969C80.4883 9.75821 80.7371 10.4459 80.7371 11.3396V15.5581H78.9489V11.5592C78.9489 10.6385 78.4086 10.1435 77.5767 10.1435C76.6457 10.1435 76.0509 10.7059 76.0509 11.8482V15.5581H74.2607V8.68723H76.0509V9.45772C76.4804 8.81244 77.1743 8.49461 78.117 8.49461C78.4652 8.48174 78.8122 8.54241 79.1349 8.6726C79.4576 8.80278 79.7487 8.9995 79.9888 9.24969Z" fill="white"/>
<path d="M83.1141 11.7094V15.5619H81.324V5.93848H83.1141V11.7171" fill="white"/>
<path d="M71.8855 8.6873V9.49631C71.3452 8.82406 70.5949 8.49467 69.625 8.49467C69.1744 8.49226 68.7285 8.58536 68.3171 8.76775C67.9058 8.95014 67.5386 9.21759 67.2401 9.55217C66.586 10.2485 66.2323 11.1706 66.2547 12.1217C66.2322 13.0775 66.5855 14.0045 67.2401 14.7067C67.5393 15.0395 67.9069 15.3049 68.3183 15.485C68.7297 15.6651 69.1753 15.7557 69.625 15.7507C70.5969 15.7507 71.3452 15.4213 71.8855 14.7472V15.5581H73.666V8.6873H71.8855ZM69.9419 14.1057C69.5444 14.1057 69.1558 13.9889 68.8253 13.7701C68.4948 13.5512 68.2372 13.2402 68.0851 12.8762C67.9329 12.5123 67.8931 12.1118 67.9707 11.7255C68.0482 11.3391 68.2397 10.9842 68.5207 10.7057C68.8018 10.4271 69.1599 10.2374 69.5498 10.1606C69.9396 10.0837 70.3437 10.1232 70.711 10.2739C71.0782 10.4247 71.3921 10.68 71.6129 11.0075C71.8338 11.335 71.9516 11.7201 71.9516 12.114C71.9516 12.6423 71.7399 13.1489 71.363 13.5224C70.9861 13.8959 70.4749 14.1057 69.9419 14.1057Z" fill="white"/>
<path d="M39.2821 5.97321C39.2377 5.87088 39.1639 5.78377 39.0699 5.72278C38.9759 5.6618 38.8658 5.62965 38.7534 5.63035H36.6523C36.0142 5.63015 35.3834 5.76534 34.8024 6.02681C34.2214 6.28829 33.7036 6.67 33.2839 7.14628L33.7212 6.64546C34.1633 6.13643 34.4068 5.48721 34.4073 4.81556V0.577879C34.4073 0.42462 34.3459 0.27764 34.2365 0.16927C34.1272 0.0608988 33.9789 1.42571e-05 33.8242 1.42571e-05C33.7422 -0.000562138 33.6611 0.016345 33.5863 0.0495805C33.5115 0.082816 33.4448 0.131602 33.3908 0.192636L29.9427 4.15487L29.8727 4.23384L29.8046 4.15487L26.3585 0.198414C26.3047 0.137081 26.238 0.0880851 26.1632 0.054824C26.0883 0.0215628 26.0071 0.00483247 25.925 0.00579267C25.7704 0.00579267 25.6221 0.0666772 25.5127 0.175048C25.4034 0.283419 25.3419 0.430398 25.3419 0.583658V4.82133C25.3416 5.49314 25.5851 6.14265 26.0281 6.65124L26.4634 7.15206C26.0449 6.67546 25.5283 6.2931 24.9483 6.03064C24.3683 5.76818 23.7384 5.6317 23.1009 5.63035H21.0017C20.8897 5.63168 20.7805 5.66492 20.6871 5.72612C20.5937 5.78731 20.52 5.87387 20.4749 5.97544C20.4298 6.07701 20.4152 6.1893 20.4328 6.2989C20.4504 6.40849 20.4994 6.51075 20.5741 6.59346L27.7346 14.8473C28.2023 15.3744 28.8462 15.7164 29.5481 15.8104L29.8766 15.8566L30.205 15.8104C30.9067 15.7157 31.5504 15.3738 32.0185 14.8473L39.1868 6.59346C39.2633 6.51127 39.3133 6.4083 39.3302 6.29778C39.3472 6.18725 39.3304 6.07422 39.2821 5.97321ZM33.8203 0.287025H33.8339C33.8094 0.283294 33.7845 0.283294 33.7601 0.287025C33.7801 0.285268 33.8003 0.285268 33.8203 0.287025ZM25.9037 0.287025H25.9173C25.9373 0.285029 25.9575 0.285029 25.9775 0.287025C25.9555 0.284554 25.9333 0.285198 25.9114 0.288947L25.9037 0.287025Z" fill="white"/>
<path d="M38.7533 5.91748H36.6521C36.0507 5.91762 35.4564 6.04623 34.9097 6.29453C34.3629 6.54283 33.8766 6.905 33.4839 7.35636L30.166 11.1684V15.5216C30.7961 15.4389 31.3751 15.1339 31.7968 14.6625L38.9671 6.40096C39.005 6.35967 39.0301 6.30836 39.0392 6.25325C39.0483 6.19814 39.0412 6.14159 39.0185 6.09043C38.9959 6.03928 38.9588 5.99572 38.9117 5.96502C38.8647 5.93433 38.8096 5.91781 38.7533 5.91748Z" fill="#E10600"/>
<path d="M21.0015 5.91748H23.1007C23.703 5.91843 24.298 6.04815 24.8451 6.2978C25.3922 6.54745 25.8785 6.91115 26.2708 7.36407L29.5887 11.1761V15.5293C28.9586 15.4466 28.3796 15.1416 27.9579 14.6702L20.7974 6.40096C20.7599 6.36028 20.735 6.30984 20.7255 6.25558C20.716 6.20132 20.7223 6.1455 20.7438 6.0947C20.7652 6.04389 20.8009 6.00022 20.8465 5.96882C20.8922 5.93743 20.9459 5.91961 21.0015 5.91748Z" fill="#E10600"/>
<path d="M34.1156 0.572226V4.8099C34.1159 5.4122 33.8979 5.99459 33.5014 6.45104L30.166 10.2881V4.34761L33.6141 0.387311C33.6523 0.343786 33.7029 0.312832 33.7592 0.298583C33.8156 0.284334 33.875 0.28747 33.9295 0.307571C33.984 0.327672 34.0311 0.363779 34.0643 0.411071C34.0976 0.458364 34.1155 0.514586 34.1156 0.572226Z" fill="#E10600"/>
<path d="M25.6372 0.572226V4.8099C25.6376 5.41242 25.8563 5.99477 26.2534 6.45104L29.5887 10.2823V4.34761L26.1387 0.387311C26.1005 0.343786 26.0499 0.312832 25.9936 0.298583C25.9372 0.284334 25.8778 0.28747 25.8233 0.307571C25.7688 0.327672 25.7218 0.363779 25.6885 0.411071C25.6553 0.458364 25.6374 0.514586 25.6372 0.572226Z" fill="#E10600"/>
<path d="M87.5633 8.67762H86.4729C86.1612 8.67762 85.8531 8.7442 85.5697 8.87284C85.2863 9.00148 85.0342 9.18915 84.8305 9.42306L83.1104 11.409V13.6665C83.4373 13.6246 83.7377 13.4665 83.9559 13.2216L87.6741 8.93573C87.6973 8.91505 87.7133 8.88773 87.7201 8.85757C87.7268 8.82741 87.7238 8.79593 87.7116 8.76751C87.6994 8.73909 87.6786 8.71515 87.652 8.69903C87.6254 8.68292 87.5944 8.67543 87.5633 8.67762Z" fill="#E10600"/>
<path d="M85.0364 12.2258L84.533 12.7864C84.3853 12.9494 84.302 13.1599 84.2985 13.3789C84.2949 13.598 84.3713 13.811 84.5135 13.9787C85.0345 14.5951 85.8139 15.5582 85.8139 15.5582H87.7945L85.0364 12.2258Z" fill="white"/>
<path d="M87.7654 8.73743C87.7493 8.69931 87.7223 8.66665 87.6878 8.6434C87.6533 8.62016 87.6128 8.60732 87.571 8.60645H86.4806C86.1585 8.60649 85.8402 8.67534 85.5474 8.8083C85.2546 8.94126 84.9942 9.13521 84.7838 9.37693L83.0461 11.3744V11.6017L83.19 11.4322L84.8926 9.47709C85.0893 9.25054 85.333 9.06872 85.607 8.94406C85.8811 8.81939 86.1791 8.75483 86.4806 8.75476H87.571C87.5863 8.75497 87.6011 8.75961 87.6137 8.76809C87.6263 8.77657 87.6361 8.78852 87.6418 8.80246C87.6476 8.81641 87.6492 8.83174 87.6463 8.84654C87.6434 8.86134 87.6361 8.87497 87.6255 8.88574L83.9072 13.1735C83.7175 13.3803 83.4663 13.522 83.19 13.578L83.0636 13.6011H83.0461V13.7494L83.1278 13.7379C83.4724 13.694 83.789 13.5269 84.018 13.2679L87.7343 8.98398C87.7645 8.95108 87.7837 8.90972 87.7893 8.86559C87.7948 8.82145 87.7865 8.77669 87.7654 8.73743Z" fill="white"/>
</svg>

<svg width="101" height="46" fill="none" xmlns="http://www.w3.org/2000/svg"><path d="M9.932 19.436a9.173 9.173 0 00-5.053 1.506v-1.044H0V46h4.88v-9.916a9.237 9.237 0 008.167.963 9.167 9.167 0 003.535-2.296 9.058 9.058 0 002.119-3.624 9 9 0 00-1.42-8.029 9.139 9.139 0 00-3.235-2.694 9.225 9.225 0 00-4.112-.968h-.002zm0 13.566a4.56 4.56 0 01-2.517-.757 4.5 4.5 0 01-1.669-2.015 4.453 4.453 0 01-.257-2.595 4.478 4.478 0 011.24-2.299 4.543 4.543 0 012.32-1.228 4.57 4.57 0 012.618.256c.828.34 1.536.916 2.033 1.655a4.461 4.461 0 01-.564 5.669 4.564 4.564 0 01-3.204 1.314zm19.11-13.098h1.386v4.838h-1.391c-.906 0-1.776.357-2.416.992a3.37 3.37 0 00-1.001 2.395v9.188h-4.88v-9.188a8.152 8.152 0 01.63-3.15 8.224 8.224 0 011.8-2.67 8.31 8.31 0 012.695-1.785 8.37 8.37 0 013.178-.626v.006zm49.691-.386c-1.53 0-3.037.381-4.38 1.11a9.09 9.09 0 00-3.304 3.056 8.967 8.967 0 00-.601 8.66 9.057 9.057 0 002.85 3.476 9.198 9.198 0 008.677 1.186 9.122 9.122 0 003.695-2.58l-3.555-2.574a4.748 4.748 0 01-2 1.203 4.782 4.782 0 01-4.442-.904 4.7 4.7 0 01-1.36-1.886H87.69a8.954 8.954 0 00-.118-3.946 9.005 9.005 0 00-1.805-3.52 9.105 9.105 0 00-3.146-2.42 9.185 9.185 0 00-3.888-.86zm-4.418 7.32a4.71 4.71 0 011.744-2.17 4.775 4.775 0 015.348 0 4.71 4.71 0 011.744 2.17h-8.836zm-6.303 0v10.48h-4.877V27.012a3.313 3.313 0 00-.957-2.412 3.37 3.37 0 00-2.41-1.006 3.395 3.395 0 00-2.41 1.006 3.336 3.336 0 00-.958 2.412v10.306h-4.88V27.01a3.313 3.313 0 00-.958-2.412 3.37 3.37 0 00-2.41-1.006 3.395 3.395 0 00-2.41 1.006 3.335 3.335 0 00-.957 2.412v10.306h-4.881V19.904h4.88v2.1a7.197 7.197 0 012.456-1.83 7.257 7.257 0 013-.65c2.424 0 4.098 1.112 5.27 2.265a7.24 7.24 0 013.127-1.95 7.294 7.294 0 013.69-.163 7.254 7.254 0 013.291 1.664 7.16 7.16 0 012.032 3.058 9.55 9.55 0 01.362 2.438v.002zM32.07 19.913h4.882v4.847H32.07v-4.847zm0 17.404h4.88V25.77h-4.88v11.546zm65.44-13.942v-3.46h-3.492v3.46h-3.49v3.46h3.49v3.459h3.491v-3.46H101v-3.46h-3.49z" fill="#fff"/><path d="M85.365 8.98zm2.345-.173zm-.032-.076z" fill="#E10600"/><path d="M87.674 8.926l-3.718 4.286 3.718-4.286zm.037-.079a.148.148 0 00-.084-.156.147.147 0 00-.064-.013h-1.09a2.178 2.178 0 00-1.642.745l-1.72 1.986v2.258c.326-.042.627-.2.845-.445l3.718-4.286a.142.142 0 00.037-.089zm-.117.012l-3.72 4.284a1.254 1.254 0 01-.66.385v-2.09l1.694-1.955a2.07 2.07 0 011.565-.71h1.09a.047.047 0 01.042.029.046.046 0 01-.01.05v.007z" fill="#fff"/><path d="M87.604 8.809a.04.04 0 00-.04-.03h-1.091a2.088 2.088 0 00-1.565.712l-1.695 1.947-.103.117v2.002l.103-.023c.256-.057.487-.192.661-.386l3.72-4.29a.04.04 0 00.01-.05z" fill="#E10600"/><path d="M44.359 15.558l-3.26-9.62h2.08l2.371 7.397 2.358-7.393h2.095l-3.273 9.62-2.371-.004zM54.49 5.939a3.28 3.28 0 012.357.934c.614.609.959 1.434.959 2.295 0 .86-.345 1.686-.959 2.295a3.258 3.258 0 01-2.358.934h-1.704v3.161H50.87v-9.62h3.62zm0 4.686c.38-.014.74-.173 1.005-.445a1.451 1.451 0 000-2.024 1.478 1.478 0 00-1.005-.445h-1.705v2.914h1.705zm11.354 2.144a2.567 2.567 0 01-.874 2.005 3.107 3.107 0 01-2.15.784H58.7v-9.62h3.828a3.029 3.029 0 012.096.77 2.505 2.505 0 01.859 1.939 2.321 2.321 0 01-.916 1.926c.4.21.731.528.957.916.226.388.337.832.32 1.28zM60.616 7.71v2.118h1.913c.283 0 .555-.111.755-.31a1.055 1.055 0 000-1.498 1.07 1.07 0 00-.755-.31h-1.913zm2.204 6.075c.304 0 .595-.12.81-.332a1.13 1.13 0 000-1.605 1.15 1.15 0 00-.81-.332h-2.204v2.269h2.204zM79.989 9.25c.5.508.748 1.196.748 2.09v4.218H78.95V11.56c0-.92-.54-1.415-1.372-1.415-.931 0-1.526.562-1.526 1.704v3.71h-1.79v-6.87h1.79v.77c.43-.646 1.123-.963 2.066-.963a2.477 2.477 0 011.872.755zm3.125 2.46v3.852h-1.79V5.938h1.79v5.78M71.885 8.687v.81c-.54-.673-1.29-1.002-2.26-1.002a3.185 3.185 0 00-2.385 1.057 3.628 3.628 0 00-.985 2.57c-.023.956.33 1.883.985 2.585a3.146 3.146 0 002.385 1.044c.972 0 1.72-.33 2.26-1.004v.811h1.781v-6.87h-1.78zm-1.943 5.419c-.398 0-.786-.117-1.117-.336a1.996 1.996 0 01-.74-.894 1.974 1.974 0 01.436-2.17 2.027 2.027 0 012.19-.432c.367.15.681.406.902.734a1.978 1.978 0 01-.25 2.514 2.02 2.02 0 01-1.421.584zm-30.66-8.133a.568.568 0 00-.529-.343h-2.1c-.639 0-1.27.135-1.85.397a4.467 4.467 0 00-1.52 1.12l.438-.502a2.794 2.794 0 00.686-1.83V.579c0-.153-.061-.3-.17-.409a.586.586 0 00-.846.024l-3.448 3.962-.07.079-.068-.08L26.358.199a.565.565 0 00-.433-.192.586.586 0 00-.412.169.575.575 0 00-.171.409V4.82c0 .672.243 1.322.686 1.83l.435.501a4.466 4.466 0 00-1.515-1.121 4.505 4.505 0 00-1.847-.4H21a.587.587 0 00-.526.344.573.573 0 00.1.618l7.16 8.254c.467.527 1.111.87 1.813.963l.329.047.328-.047a2.955 2.955 0 001.814-.963l7.168-8.254a.558.558 0 00.095-.62zM33.82.287h.014a.344.344 0 01-.014 0zm-7.916 0h.013a.303.303 0 01-.006.002l-.007-.002z" fill="#fff"/><path d="M38.753 5.917h-2.1c-.602 0-1.197.13-1.743.378a4.18 4.18 0 00-1.426 1.061l-3.318 3.812v4.354a2.65 2.65 0 001.63-.86l7.171-8.261a.288.288 0 00-.214-.484zm-17.751 0H23.1a4.188 4.188 0 013.17 1.447l3.318 3.812v4.353a2.65 2.65 0 01-1.631-.859l-7.16-8.269a.288.288 0 01.204-.484zM34.116.572V4.81a2.5 2.5 0 01-.616 1.64l-3.335 3.837v-5.94l3.448-3.96a.287.287 0 01.502.184zm-8.479 0V4.81c0 .602.22 1.185.616 1.641l3.336 3.831V4.348l-3.45-3.96a.287.287 0 00-.502.184zm61.926 8.106h-1.09a2.186 2.186 0 00-1.642.745l-1.72 1.986v2.257c.326-.041.627-.2.845-.444l3.718-4.286a.148.148 0 00.038-.168.149.149 0 00-.149-.09z" fill="#E10600"/><path d="M85.036 12.226l-.503.56a.904.904 0 00-.02 1.193c.521.616 1.3 1.58 1.3 1.58h1.981l-2.758-3.333zm2.729-3.489a.214.214 0 00-.194-.13h-1.09a2.258 2.258 0 00-1.697.77l-1.738 1.997v.228l.144-.17 1.703-1.955a2.095 2.095 0 011.588-.722h1.09a.078.078 0 01.07.047.077.077 0 01-.016.084l-3.718 4.288c-.19.206-.44.348-.717.404l-.126.023h-.018v.148l.082-.011a1.43 1.43 0 00.89-.47l3.716-4.284a.215.215 0 00.031-.247z" fill="#fff"/></svg>
